src/topics/icons/houndci.svg

<svg height="251" preserveAspectRatio="xMidYMid" viewBox="0 0 256 251" width="256" xmlns="http://www.w3.org/2000/svg"><path d="m203.939787 250.980392h-197.22399469c-3.70751586 0-6.71579231-2.947807-6.71579231-6.58411v-237.81217212c0-3.63481946 3.00676261-6.58410988 6.71579231-6.58410988h242.56841469c3.707515 0 6.715793 2.94780649 6.715793 6.58410988v103.36645412c-.972696-2.949975-12.365348-36.7002971-29.969881-53.8408309-18.418618-17.9331612-51.815724-32.6068981-46.849397-20.8126625 4.966326 11.7942355 4.966324 42.5165825 4.966324 42.5165825l-50.005127 19.072897-7.500354 27.7413739-61.1987947 16.135128s4.3611372 31.214733 21.9518083 36.670211c11.2831322 3.499291 85.2409834 11.658016 85.2409834 11.658016l-14.040197 61.889113z" fill="#a873d1"/></svg>

<?xml version="1.0" encoding="UTF-8" standalone="no"?>
<svg width="256px" height="251px" viewBox="0 0 256 251" version="1.1" xmlns="http://www.w3.org/2000/svg" xmlns:xlink="http://www.w3.org/1999/xlink" preserveAspectRatio="xMidYMid">
    <g>
        <path d="M203.939787,250.980392 L6.71579231,250.980392 C3.00827645,250.980392 0,248.032585 0,244.396282 L0,6.58410988 C0,2.94929042 3.00676261,0 6.71579231,0 L249.284207,0 C252.991722,0 256,2.94780649 256,6.58410988 L256,109.950564 C255.027304,107.000589 243.634652,73.2502669 226.030119,56.1097331 C207.611501,38.1765719 174.214395,23.502835 179.180722,35.2970706 C184.147048,47.0913061 184.147046,77.8136531 184.147046,77.8136531 L134.141919,96.8865501 L126.641565,124.627924 L65.4427703,140.763052 C65.4427703,140.763052 69.8039075,171.977785 87.3945786,177.433263 C98.6777108,180.932554 172.635562,189.091279 172.635562,189.091279 L158.595365,250.980392 L203.939787,250.980392 L203.939787,250.980392 Z" fill="#A873D1"></path>
    </g>
</svg>
